assets/icons/heart.svg

<svg height="16.99" viewBox="0 0 18.972 16.99" width="18.972" xmlns="http://www.w3.org/2000/svg"><path d="m8.986 15.989a1.054 1.054 0 0 1 -.695-.261c-.726-.635-1.426-1.231-2.044-1.758a38.008 38.008 0 0 1 -4.464-4.19 6.689 6.689 0 0 1 -1.783-4.38 5.617 5.617 0 0 1 1.426-3.835 4.833 4.833 0 0 1 3.595-1.565 4.521 4.521 0 0 1 2.823.975 5.777 5.777 0 0 1 1.142 1.192 5.778 5.778 0 0 1 1.142-1.192 4.521 4.521 0 0 1 2.824-.975 4.833 4.833 0 0 1 3.595 1.565 5.617 5.617 0 0 1 1.425 3.835 6.689 6.689 0 0 1 -1.782 4.38 38 38 0 0 1 -4.462 4.188c-.619.527-1.32 1.125-2.047 1.761a1.055 1.055 0 0 1 -.695.26zm-3.965-14.936a3.792 3.792 0 0 0 -2.821 1.225 4.569 4.569 0 0 0 -1.147 3.122 5.628 5.628 0 0 0 1.54 3.707 37.4 37.4 0 0 0 4.334 4.059c.62.528 1.323 1.127 2.054 1.767.736-.641 1.44-1.241 2.061-1.77a37.408 37.408 0 0 0 4.334-4.058 5.629 5.629 0 0 0 1.544-3.705 4.569 4.569 0 0 0 -1.147-3.123 3.791 3.791 0 0 0 -2.821-1.226 3.492 3.492 0 0 0 -2.18.755 5.109 5.109 0 0 0 -1.215 1.407.665.665 0 0 1 -1.142 0 5.1 5.1 0 0 0 -1.215-1.406 3.491 3.491 0 0 0 -2.179-.754zm0 0" stroke="#20cad1" transform="translate(.5 .5)"/></svg>

<svg xmlns="http://www.w3.org/2000/svg" width="18.972" height="16.99" viewBox="0 0 18.972 16.99"><defs><style>.a{stroke:#20cad1;}</style></defs><path class="a" d="M8.986,15.989a1.054,1.054,0,0,1-.695-.261c-.726-.635-1.426-1.231-2.044-1.758l0,0A38.008,38.008,0,0,1,1.783,9.78,6.689,6.689,0,0,1,0,5.4,5.617,5.617,0,0,1,1.426,1.565,4.833,4.833,0,0,1,5.021,0,4.521,4.521,0,0,1,7.844.975,5.777,5.777,0,0,1,8.986,2.167,5.778,5.778,0,0,1,10.128.975,4.521,4.521,0,0,1,12.952,0a4.833,4.833,0,0,1,3.595,1.565A5.617,5.617,0,0,1,17.972,5.4,6.689,6.689,0,0,1,16.19,9.78a38,38,0,0,1-4.462,4.188c-.619.527-1.32,1.125-2.047,1.761A1.055,1.055,0,0,1,8.986,15.989ZM5.021,1.053A3.792,3.792,0,0,0,2.2,2.278,4.569,4.569,0,0,0,1.053,5.4a5.628,5.628,0,0,0,1.54,3.707,37.4,37.4,0,0,0,4.334,4.059l0,0c.62.528,1.323,1.127,2.054,1.767.736-.641,1.44-1.241,2.061-1.77a37.408,37.408,0,0,0,4.334-4.058A5.629,5.629,0,0,0,16.92,5.4a4.569,4.569,0,0,0-1.147-3.123,3.791,3.791,0,0,0-2.821-1.226,3.492,3.492,0,0,0-2.18.755A5.109,5.109,0,0,0,9.557,3.213a.665.665,0,0,1-1.142,0A5.1,5.1,0,0,0,7.2,1.807,3.491,3.491,0,0,0,5.021,1.053Zm0,0" transform="translate(0.5 0.5)"/></svg>
